assets/picasso/logo.svg

<svg width="64" height="64" viewBox="0 0 64 64" fill="none" xmlns="http://www.w3.org/2000/svg">
<path d="M64 32C64 14.3269 49.6731 0 32 0C14.3269 0 0 14.3269 0 32C0 49.6731 14.3269 64 32 64C49.6731 64 64 49.6731 64 32Z" fill="url(#paint0_linear)"/>
<path d="M64 32C64 14.3269 49.6731 0 32 0C14.3269 0 0 14.3269 0 32C0 49.6731 14.3269 64 32 64C49.6731 64 64 49.6731 64 32Z" fill="#120901"/>
<path d="M40.2886 31.3633C39.9913 31.3633 39.6938 31.4003 39.4337 31.5491C39.0991 31.7721 38.8389 32.2925 38.8389 32.7757C38.8389 33.1846 39.2106 33.705 39.6195 33.9281C40.7718 34.5227 41.9985 33.1846 41.4038 32.0695C41.2179 31.6606 40.7347 31.4003 40.2886 31.3633Z" fill="#FF8500"/>
<path d="M30.9758 23.4086C31.3846 23.4829 31.9794 24.8954 32.0908 26.0849C32.128 26.3452 32.0908 26.9028 32.0908 27.3116C32.0536 27.9436 31.9794 28.1294 31.7563 28.4268C31.2731 29.133 30.381 29.579 29.2287 29.6534C28.8942 29.6906 28.3366 29.7277 28.0391 29.7277C27.5559 29.6906 27.5187 29.6906 27.5931 29.5048C27.6303 29.4304 27.7418 29.1702 27.8162 28.9472C28.2994 27.4604 29.3774 25.0813 29.935 24.338C30.3066 23.7804 30.7527 23.3714 30.9758 23.4086ZM30.604 20.1748C30.4182 20.1748 30.1951 20.2118 29.8606 20.3234C29.3774 20.4721 28.9312 20.7322 28.5224 21.0668C27.9276 21.5129 27.8534 21.5501 27.8162 21.3642C27.779 21.0668 27.2958 20.658 26.8496 20.6208C26.4036 20.5464 25.846 20.7694 25.623 21.104C25.5115 21.2526 25.2142 21.736 24.9167 22.2192C24.3963 23.1113 24.2104 23.7432 24.3963 24.1149C24.5079 24.338 24.4707 24.5981 24.1362 26.1965C23.5414 29.0958 22.575 35.0805 22.575 36.2328C22.5378 38.8348 22.575 41.2881 22.6122 41.7713C22.7236 42.5148 22.9839 43.0352 23.4671 43.3697C23.9503 43.7042 24.2104 43.7786 24.7308 43.6298C25.2512 43.5184 25.5115 43.3325 25.8088 42.9235C26.1434 42.4403 26.2178 41.92 26.2178 39.6525C26.1806 36.9018 26.5523 32.5528 26.7754 32.2926C26.8496 32.2554 27.3328 32.2182 27.8904 32.2926C29.972 32.4785 31.6819 32.1068 32.983 31.1402C34.3955 30.0994 34.9902 28.91 35.1018 26.9028C35.2132 24.2636 34.3583 21.9217 32.8343 20.7322C32.3511 20.3977 32.2023 20.3605 31.459 20.249C31.0872 20.1748 30.827 20.1376 30.604 20.1748Z" fill="white"/>
<defs>
<linearGradient id="paint0_linear" x1="32" y1="-1.5746" x2="30.5424" y2="64.6791" gradientUnits="userSpaceOnUse">
<stop stop-color="#020100"/>
<stop offset="1" stop-color="#1B0E00"/>
</linearGradient>
</defs>
</svg>

<svg viewBox="0 0 64 64" fill="none" xmlns="http://www.w3.org/2000/svg">
    <path d="M64 32C64 14.327 49.673 0 32 0 14.327 0 0 14.327 0 32c0 17.673 14.327 32 32 32 17.673 0 32-14.327 32-32Z" fill="url(#a)"/>
    <path d="M64 32C64 14.327 49.673 0 32 0 14.327 0 0 14.327 0 32c0 17.673 14.327 32 32 32 17.673 0 32-14.327 32-32Z" fill="#120901"/>
    <path d="M40.289 31.363c-.298 0-.595.037-.855.186-.335.223-.595.743-.595 1.227 0 .409.372.929.78 1.152 1.153.595 2.38-.743 1.785-1.858-.186-.41-.67-.67-1.115-.707Z" fill="#FF8500"/>
    <path d="M30.976 23.409c.409.074 1.003 1.486 1.115 2.676.037.26 0 .818 0 1.227-.037.632-.112.817-.335 1.115-.483.706-1.375 1.152-2.527 1.226-.335.038-.892.075-1.19.075-.483-.037-.52-.037-.446-.223.037-.075.149-.335.223-.558.483-1.487 1.561-3.866 2.119-4.609.372-.558.818-.967 1.04-.93Zm-.372-3.234c-.186 0-.409.037-.743.148a3.97 3.97 0 0 0-1.339.744c-.594.446-.669.483-.706.297-.037-.297-.52-.706-.966-.743-.446-.075-1.004.148-1.227.483-.111.149-.409.632-.706 1.115-.52.892-.707 1.524-.52 1.896.11.223.074.483-.26 2.082-.596 2.899-1.562 8.884-1.562 10.036-.037 2.602 0 5.055.037 5.538.112.744.372 1.264.855 1.599.483.334.743.409 1.264.26.52-.112.78-.297 1.078-.707.334-.483.409-1.003.409-3.27-.037-2.751.334-7.1.557-7.36.075-.038.558-.075 1.115 0 2.082.185 3.792-.186 5.093-1.153 1.413-1.04 2.007-2.23 2.119-4.237.111-2.64-.744-4.981-2.268-6.17-.483-.335-.632-.373-1.375-.484-.372-.074-.632-.111-.855-.074Z" fill="#fff"/>
    <defs>
        <linearGradient id="a" x1="32" y1="-1.575" x2="30.542" y2="64.679" gradientUnits="userSpaceOnUse">
            <stop stop-color="#020100"/>
            <stop offset="1" stop-color="#1B0E00"/>
        </linearGradient>
    </defs>
</svg>
